themes/libfl/images/svg/book.svg

<?xml version="1.0" encoding="UTF-8"?>
<svg width="24px" height="24px" viewBox="0 0 24 24" version="1.1" xmlns="http://www.w3.org/2000/svg" xmlns:xlink="http://www.w3.org/1999/xlink">
    <!-- Generator: Sketch 53 (72520) - https://sketchapp.com -->
    <title>Icon / Catalog / Book</title>
    <desc>Created with Sketch.</desc>
    <g id="Icon-/-Catalog-/-Book" stroke="none" stroke-width="1" fill="none" fill-rule="evenodd">
        <path d="M21,22 L6,22 C4.34314575,22 3,20.6568542 3,19 L3,5 C3,3.34314575 4.34314575,2 6,2 L21,2 L20.9999995,18 C20.4477153,18 20,18.4477153 20,19 C20,19.5522847 20.4477153,20 21,20 L21,22 Z M18,19 C18,18.6493646 18.0601542,18.3127789 18.1707057,18 L6,18 C5.44771525,18 5,18.4477153 5,19 C5,19.5522847 5.44771525,20 6,20 L18.1707057,20 C18.0601542,19.6872211 18,19.3506354 18,19 Z M19,4 L6,4 C5.44771525,4 5,4.44771525 5,5 L5,16.1707057 C5.31277893,16.0601542 5.64936458,16 6,16 L19,16 L19,4 Z" id="icon" fill="#B4BAC1"></path>
    </g>
</svg>

<?xml version="1.0" encoding="utf-8"?>
<!-- Generator: Adobe Illustrator 21.0.0, SVG Export Plug-In . SVG Version: 6.00 Build 0)  -->
<svg version="1.1" id="Слой_1" xmlns="http://www.w3.org/2000/svg" xmlns:xlink="http://www.w3.org/1999/xlink" x="0px" y="0px"
	 viewBox="0 0 24 24" style="enable-background:new 0 0 24 24;" xml:space="preserve">
<style type="text/css">
	.st0{clip-path:url(#SVGID_2_);}
</style>
<g>
	<defs>
		<path id="SVGID_1_" d="M19,4H6C5.4,4,5,4.4,5,5v11.2C5.3,16.1,5.6,16,6,16h13V4z M18,19c0-0.4,0.1-0.7,0.2-1H6c-0.6,0-1,0.4-1,1
			s0.4,1,1,1h12.2C18.1,19.7,18,19.4,18,19z M21,22H6c-1.7,0-3-1.3-3-3V5c0-1.7,1.3-3,3-3h15v16c-0.6,0-1,0.4-1,1s0.4,1,1,1V22z"/>
	</defs>
	<clipPath id="SVGID_2_">
		<use xlink:href="#SVGID_1_"  style="overflow:visible;"/>
	</clipPath>
	<rect x="-2" y="-3" class="st0" width="28" height="30"/>
</g>
</svg>
